dist/assets/img/checkbox-checked.svg

<svg width="16" height="11" viewBox="0 0 16 11" fill="none" xmlns="http://www.w3.org/2000/svg">
<path fill-rule="evenodd" clip-rule="evenodd" d="M15.7397 0.247833C16.0868 0.578276 16.0868 1.11403 15.7397 1.44448L5.96187 10.7522C5.61474 11.0826 5.05193 11.0826 4.70479 10.7522L0.26035 6.5214C-0.0867832 6.19095 -0.0867832 5.6552 0.26035 5.32476C0.607482 4.99431 1.1703 4.99431 1.51743 5.32476L5.33333 8.9572L14.4826 0.247833C14.8297 -0.0826109 15.3925 -0.0826109 15.7397 0.247833Z" fill="white"/>
</svg>

<svg width="16" height="11" fill="none" xmlns="http://www.w3.org/2000/svg"><path fill-rule="evenodd" clip-rule="evenodd" d="M15.74.248a.818.818 0 010 1.196l-9.778 9.308a.921.921 0 01-1.257 0L.26 6.522a.818.818 0 010-1.197.92.92 0 011.257 0l3.816 3.632 9.15-8.71a.921.921 0 011.257 0z" fill="#fff"/></svg>
